!!!!SEGMENT: Con2011-In_illa_die_suscipiam_te--Liber_septimus.krn
!!!id: Con20011
!!!AGN: Motet
!!!voices: 4
!!!COM: Jean Conseil
!!!SMS: Liber septimus
!!!OTL: In illa die suscipiam te (Liber septimus)
**kern	**kern	**kern	**kern
*part4	*part3	*part2	*part1
*staff4	*staff3	*staff2	*staff1
*I"Bassus	*I"Tenor	*I"Altus	*I"Superius
*I'B	*I'T	*I'A	*I'S
*clefF4	*clefGv2	*clefGv2	*clefGv2
*k[b-]	*k[b-]	*k[b-]	*k[b-]
*M2/1	*M2/1	*M2/1	*M2/1
*met(C|)	*met(C|)	*met(C|)	*met(C|)
!!Section: Prima pars: In illa die
!!!OMD: Prima pars: In illa die
=1	=1	=1	=1
0r	0r	0r	0A
=2	=2	=2	=2
0r	0r	0E	1c
.	.	.	1c
=3	=3	=3	=3
0r	0r	1G	0d
.	.	1G	.
=4	=4	=4	=4
0AA	0r	0A	1.c
.	.	.	2d
=5	=5	=5	=5
1C	0r	0G	2e
.	.	.	1f
1C	.	.	.
.	.	.	2e
=6	=6	=6	=6
0D	0A	0F	1f
.	.	.	2d
.	.	.	[2f
=7	=7	=7	=7
0C	1c	1G	2f]
.	.	.	4e
.	.	.	4d
.	1c	2r	1e
.	.	2G	.
=8	=8	=8	=8
1r	0d	2B-y	0f
.	.	2B-y	.
1D	.	2A	.
.	.	2F	.
=9	=9	=9	=9
2F	0c	1A	0r
2F	.	.	.
2E	.	1G	.
[2C	.	.	.
=10	=10	=10	=10
4C]	1r	4A	0r
4D	.	4B-y	.
4E	.	4c	.
4F	.	4A	.
2G	2r	1B-y	.
[2GG	2G	.	.
=11	=11	=11	=11
4GG]	2B-y	1G	1d
4AA	.	.	.
4BB-y	2B-y	.	.
4C	.	.	.
1D	2A	4F	2f
.	.	4G	.
.	2F	4A	2f
.	.	4B-y	.
=12	=12	=12	=12
2.AA	1A	1.c	2e
.	.	.	2c
4BB-y	.	.	.
1C	[1G	.	1e
.	.	2c	.
=13	=13	=13	=13
2.GG	2G]	1.B-y	1.d
.	2G	.	.
4AA	.	.	.
2BB-y	2F	.	.
2C	2E	[2G	[2c
=14	=14	=14	=14
1D	1F	4G]	2c]
.	.	4F	.
.	.	1F	2BnXi
1C	1G	.	[1c
.	.	2E	.
=15	=15	=15	=15
1FF	2A	2F	1c]
.	1c	1A	.
2r	.	.	1r
2FF	4B-y	4G	.
.	4A	4F	.
=16	=16	=16	=16
1C	2G	1E	0r
.	1A	.	.
1D	.	2r	.
.	4G	2F	.
.	4F	.	.
=17	=17	=17	=17
1C	1E	1c	0r
2r	1r	1d	.
2F	.	.	.
=18	=18	=18	=18
2F	0r	1c	0r
2F	.	.	.
2D	.	2r	.
2E	.	2c	.
=19	=19	=19	=19
1.F	0r	2c	0r
.	.	2c	.
.	.	2A	.
2D	.	2B-y	.
=20	=20	=20	=20
2E	1r	2.c	0r
2.F	.	.	.
.	.	4B-y	.
.	2r	4A	.
4E	.	4G	.
2D	2F	[2B-y	.
=21	=21	=21	=21
2C	1c	4B-]	0r
.	.	4A	.
2AA	.	2.A	.
2BB-y	1d	.	.
.	.	4F	.
2BB-y	.	2G	.
=22	=22	=22	=22
2AA	2c	1A	2r
2FF	2A	.	2F
2AA	2A	2r	1c
2AA	2A	2E	.
=23	=23	=23	=23
2BB-y	2F	2D	1d
2BB-y	2G	2D	.
1AA	1A	2E	2c
.	.	[2F	2A
=24	=24	=24	=24
2r	2r	2F]	2A
2AA	2c	2E	2A
2BB-y	2d	2D	2F
2GG	2e	[2G	2G
=25	=25	=25	=25
1.D	1.f	4G]	0A
.	.	4F	.
.	.	2F	.
.	.	2D	.
2C	2e	2E	.
=26	=26	=26	=26
1BB-y	1d	2F	2r
.	.	2D	2G
1AA	2.c	[1E	2A
.	.	.	2B-y
.	8B-yL	.	.
.	8AJ	.	.
=27	=27	=27	=27
2r	2G	1E]	1.c
2C	1A	.	.
2D	.	1r	.
2E	2G	.	2B-y
=28	=28	=28	=28
1.F	1c	0r	2A
.	.	.	2c
.	2r	.	2d
2E	2G	.	2e
=29	=29	=29	=29
1D	2A	2r	1.f
.	2B-y	2F	.
1C	1c	2G	.
.	.	2A	2e
=30	=30	=30	=30
0BB-y	1.F	1.B-y	0d
.	4E	2A	.
.	4D	.	.
=31	=31	=31	=31
0C	0E	0G	0c
=32	=32	=32	=32
1.C	1.c	1.G	1.e
2C	2c	2G	2e
=33	=33	=33	=33
0C	0c	0G	0e
=34	=34	=34	=34
1FF	1A	1F	1c
[1BB-y	[1F	2.D	[1d
.	.	4C	.
=35	=35	=35	=35
2BB-]	2F]	4D	2d]
.	.	4E	.
2AA	2F	1F	2c
2GG	2G	.	2B-y
2GG	2G	2E	2B-y
=36	=36	=36	=36
1FF	2C	1F	1A
.	2.F	.	.
1C	.	2r	[1c
.	4E	.	.
.	4E	2G	.
.	8DL	.	.
.	8EJ	.	.
=37	=37	=37	=37
0FF	2.F	1A	1c]
.	4E	.	.
.	4F	[1c	1r
.	4G	.	.
.	[2A	.	.
=38	=38	=38	=38
1r	2A]	2c]	0r
.	4G	2c	.
.	4F	.	.
1C	1E	4c	.
.	.	4B-y	.
.	.	4A	.
.	.	4G	.
=39	=39	=39	=39
1D	0r	2.F	0r
.	.	4G	.
[1F	.	4A	.
.	.	4B-y	.
.	.	[2c	.
=40	=40	=40	=40
2F]	0r	4c]	1r
.	.	4B-y	.
2F	.	4A	.
.	.	4G	.
1F	.	2A	1c
.	.	[2F	.
=41	=41	=41	=41
1BB-y	0r	2F]	1d
.	.	1B-y	.
2.F	.	.	[1f
.	.	4A	.
4E	.	4G	.
=42	=42	=42	=42
2D	1F	2A	2f]
2D	.	2B-y	2f
1C	1G	1c	1e
=43	=43	=43	=43
0BB-y	1.B-y	0F	0d
.	2B-y	.	.
=44	=44	=44	=44
1r	1B-y	1r	1G
1D	2r	1F	1A
.	[2F	.	.
=45	=45	=45	=45
1C	2F]	1G	1.c
.	2E	.	.
[1FF	2F	[1A	.
.	2F	.	2c
=46	=46	=46	=46
2FF]	2C	2A]	[0cl
2FF	1F	2A	.
[1Cl	.	[1Gl	.
.	4E	.	.
.	4D	.	.
=47	=47	=47	=47
0C]	0El	0G]	0c]
=48||	=48||	=48||	=48||
*M2/1	*M2/1	*M2/1	*M2/1
*met(C|)	*met(C|)	*met(C|)	*met(C|)
!!Section: Secunda pars: In tribulatione
!!!OMD: Secunda pars: In tribulatione
0r	1G	0r	0r
.	2G	.	.
.	2E	.	.
=49	=49	=49	=49
0r	2F	1r	0r
.	2G	.	.
.	1A	1c	.
=50	=50	=50	=50
0r	2F	2c	0r
.	2F	2A	.
.	2G	2B-y	.
.	2A	2c	.
=51	=51	=51	=51
1r	1B-y	1d	0r
1C	2A	[1c	.
.	[2G	.	.
=52	=52	=52	=52
2C	4G]	2c]	0r
.	4E	.	.
2AA	1A	2c	.
2BB-y	.	2d	.
2C	2G	2e	.
=53	=53	=53	=53
1D	1F	1f	1r
[1C	[1G	1e	1c
=54	=54	=54	=54
2C]	2G]	2r	2c
2FF	4F	2c	2A
.	4E	.	.
2GG	2D	2B-y	2B-y
2AA	[2F	[2A	2c
=55	=55	=55	=55
1BB-y	2F]	2A]	1d
.	4E	2G	.
.	4D	.	.
1AA	1E	[1A	[1c
=56	=56	=56	=56
2FF	2F	2A]	2c]
1BB-y	1D	4B-y	2F
.	.	4A	.
.	.	4G	2G
.	.	4F	.
2AA	2C	[2F	2A
=57	=57	=57	=57
1GG	1G	2F]	1B-y
.	.	2E	.
2FF	2r	2.F	2A
2F	2A	.	2c
.	.	4G	.
=58	=58	=58	=58
2F	2A	4A	2d
.	.	4B-y	.
2E	2G	1c	2e
1D	1F	.	1f
.	.	2B-y	.
=59	=59	=59	=59
2C	2G	1c	2e
2F	2.A	.	2c
2F	.	2r	2c
.	4G	.	.
2E	[2G	2C	2c
=60	=60	=60	=60
1D	4G]	2F	2d
.	4F	.	.
.	1F	2F	2B-y
1C	.	1G	[1c
.	2E	.	.
=61	=61	=61	=61
[0FF	1F	[0A	0c]
.	2r	.	.
.	[2F	.	.
=62	=62	=62	=62
1FF]	2F]	1A]	2r
.	2F	.	1c
1r	1E	1r	.
.	.	.	2c
=63	=63	=63	=63
0r	1D	0r	1B-y
.	2C	.	1A
.	[2F	.	.
=64	=64	=64	=64
0r	2F]	2r	2.G
.	4E	1c	.
.	4D	.	4F
.	2E	.	2G
.	2F	2c	[2A
=65	=65	=65	=65
0r	2D	1B-y	2A]
.	2E	.	2G
.	1F	1A	[1c
=66	=66	=66	=66
1.C	1E	1G	1c]
.	1G	1E	2r
2C	.	.	4G
.	.	.	4A
=67	=67	=67	=67
1BB-y	2G	2D	4B-y
.	.	.	4c
.	1F	2D	2.d
1AA	.	2A	.
.	.	.	4c
.	[2E	2E	[2c
=68	=68	=68	=68
1GG	2E]	2G	2c]
.	2.D	2.G	2B-y
1r	.	.	1A
.	4E	4F	.
.	2F	[2F	.
=69	=69	=69	=69
1r	1C	2F]	1G
.	.	2E	.
[1F	1r	2F	4A
.	.	.	4G
.	.	4c	4A
.	.	4B-y	4B-y
=70	=70	=70	=70
2F]	2r	4A	4c
.	.	4G	4A
2F	2D	1A	2.d
1E	2E	.	.
.	.	.	4c
.	2C	2G	[2c
=71	=71	=71	=71
1D	1F	2A	2c]
.	.	2F	2BnXi
[1C	2E	2G	[1c
.	[2F	2A	.
=72	=72	=72	=72
1C]	4F]	1G	1c]
.	4E	.	.
.	4E	.	.
.	8DL	.	.
.	8EJ	.	.
[1BB-y	2F	[1B-y	[1d
.	[2F	.	.
=73	=73	=73	=73
2BB-]	2F]	2B-]	2d]
2BB-y	2F	2B-y	2d
1BB-y	1F	1B-y	1d
=74	=74	=74	=74
1C	1E	2G	1c
.	.	1c	.
[1D	[1F	.	[1f
.	.	4BnXi	.
.	.	4A	.
=75	=75	=75	=75
1D]	1F]	1BnXi	1f]
[1C	[1G	[1c	[1e
=76	=76	=76	=76
1C]	1G]	1c]	1e]
[1C	[1G	[1c	[1e
=77	=77	=77	=77
2C]	2G]	2c]	2e]
2C	2G	2c	2e
[1C	[1G	[1c	[1e
=78	=78	=78	=78
1C]	1G]	1c]	1e]
1FF	1F	1A	1c
=79	=79	=79	=79
1.BB-y	2.D	1.F	1.d
.	4C	.	.
.	4D	.	.
.	4E	.	.
2AA	[2F	2F	2c
=80	=80	=80	=80
2GG	2F]	2G	2B-y
2GG	2E	2G	2B-y
1FF	1F	2C	1A
.	.	[2F	.
=81	=81	=81	=81
1C	2r	4F]	0c
.	.	4E	.
.	2G	4E	.
.	.	8DL	.
.	.	8EJ	.
[1FF	1A	2.F	.
.	.	4E	.
=82	=82	=82	=82
1FF]	1.c	4F	0r
.	.	4G	.
.	.	1A	.
1r	.	.	.
.	2c	4G	.
.	.	4F	.
=83	=83	=83	=83
1C	4c	1E	0r
.	4B-y	.	.
.	4A	.	.
.	4G	.	.
1D	2.F	1r	.
.	4G	.	.
=84	=84	=84	=84
1.F	4A	0r	0r
.	4B-y	.	.
.	2.c	.	.
.	4B-y	.	.
2F	4A	.	.
.	4G	.	.
=85	=85	=85	=85
1F	2A	0r	1c
.	1F	.	.
1BB-y	.	.	1d
.	[2B-y	.	.
=86	=86	=86	=86
2.F	2B-]	1r	1.f
.	4A	.	.
4E	4G	.	.
2D	2A	1F	.
2D	2B-y	.	2f
=87	=87	=87	=87
1C	1c	1G	1e
[1BB-y	[1F	[1B-y	[1d
=88	=88	=88	=88
1BB-]	1F]	2B-]	1d]
.	.	2B-y	.
1r	1r	1B-y	1G
=89	=89	=89	=89
1D	1F	2r	1A
.	.	1F	.
1C	1G	.	[1c
.	.	2E	.
=90	=90	=90	=90
1.FF	1.A	2F	2c]
.	.	2F	2c
.	.	2C	[1cl
2FF	2A	[2F	.
=91	=91	=91	=91
0C;	0G;	2F]	0c_
.	.	4E	.
.	.	4D	.
.	.	1E;	.
=92	=92	=92	=92
0FFl	0Al	0Fl	0c]
==	==	==	==
*-	*-	*-	*-
!!!system-decoration: [*]
!!!RDF**kern: i = editorial accidental
!!!RDF**kern: l = terminal long
!!!ENC: Janosch Umbreit
!!!END: 2025/10/24
!!!EED: Benjamin Ory
!!!EEV: 2025/10/31
!!!YEC: Copyright 2025 Benjamin Ory, All Rights Reserved
!!!ONB: Translated from MusicXML on 2025/10/31
